autovocoding.cube
# VEGAS Pro LUT
TITLE "Autovocoding"
LUT_3D_SIZE 33
0.00000000 0.00000000 1.00000000
0.00000000 0.00762021 0.99284077
0.00000000 0.01907615 0.98271447
0.00000000 0.03413101 0.96977794
0.00000000 0.05254795 0.95418787
0.00000000 0.07409015 0.93610120
0.00000000 0.09852076 0.91567463
0.00000000 0.12560296 0.89306504
0.00000000 0.15509993 0.86842918
0.00000000 0.18677483 0.84192395
0.00000000 0.22039086 0.81370604
0.00000000 0.25571114 0.78393233
0.00000000 0.29249889 0.75275958
0.00000000 0.33051723 0.72034466
0.00000000 0.36952937 0.68684435
0.00000000 0.40929848 0.65241545
0.00000000 0.44958770 0.61721474
0.00000000 0.49016026 0.58139908
0.00000000 0.53077924 0.54512525
0.00000000 0.57120788 0.50855005
0.00000000 0.61120939 0.47183034
0.00000000 0.65054685 0.43512285
0.00000000 0.68898344 0.39858443
0.00000000 0.72628236 0.36237189
0.00000000 0.76220679 0.32664204
0.00000000 0.79651988 0.29155165
0.00000000 0.82898480 0.25725758
0.00000000 0.85936475 0.22391659
0.00000000 0.88742286 0.19168551
0.00000000 0.91292232 0.16072117
0.00000000 0.93562633 0.13118033
0.00000000 0.95529801 0.10321984
0.00000000 0.97170055 0.07699648
0.00000000 0.01858948 0.98313779
0.00000000 0.03351614 0.97030187
0.00000000 0.05181358 0.95480663
0.00000000 0.07324500 0.93680900
0.00000000 0.09757354 0.91646576
0.00000000 0.12456239 0.89393371
0.00000000 0.15397473 0.86936963
0.00000000 0.18557370 0.84293032
0.00000000 0.21912250 0.81477267
0.00000000 0.25438428 0.78505343
0.00000000 0.29112223 0.75392938
0.00000000 0.32909951 0.72155738
0.00000000 0.36807927 0.68809420
0.00000000 0.40782472 0.65369666
0.00000000 0.44809905 0.61852163
0.00000000 0.48866534 0.58272576
0.00000000 0.52928686 0.54646605
0.00000000 0.56972671 0.50989914
0.00000000 0.60974807 0.47318196
0.00000000 0.64911413 0.43647125
0.00000000 0.68758810 0.39992383
0.00000000 0.72493303 0.36369655
0.00000000 0.76091224 0.32794613
0.00000000 0.79528880 0.29282945
0.00000000 0.82782590 0.25850329
0.00000000 0.85828680 0.22512448
0.00000000 0.88643450 0.19284979
0.00000000 0.91203231 0.16183606
0.00000000 0.93484336 0.13224009
0.00000000 0.95463079 0.10421866
0.00000000 0.97115779 0.07792862
0.00000000 0.98418754 0.05352675
0.00000000 0.99348325 0.03116987
0.00000000 0.05108345 0.95542198
0.00000000 0.07240377 0.93751365
0.00000000 0.09662993 0.91725391
0.00000000 0.12352511 0.89479959
0.00000000 0.15285248 0.87030751
0.00000000 0.18437520 0.84393442
0.00000000 0.21785647 0.81583720
0.00000000 0.25305942 0.78617263
0.00000000 0.28974727 0.75509751
0.00000000 0.32768315 0.72276860
0.00000000 0.36663023 0.68934280
0.00000000 0.40635172 0.65497690
0.00000000 0.44661075 0.61982763
0.00000000 0.48717052 0.58405185
0.00000000 0.52779418 0.54780638
0.00000000 0.56824487 0.51124805
0.00000000 0.60828584 0.47453362
0.00000000 0.64768022 0.43781987
0.00000000 0.68619120 0.40126368
0.00000000 0.72358191 0.36502182
0.00000000 0.75961554 0.32925111
0.00000000 0.79405528 0.29410833
0.00000000 0.82666427 0.25975031
0.00000000 0.85720569 0.22633386
0.00000000 0.88544267 0.19401577
0.00000000 0.91113853 0.16295287
0.00000000 0.93405628 0.13330196
0.00000000 0.95395911 0.10521984
0.00000000 0.97061026 0.07886332
0.00000000 0.98377287 0.05438921
0.00000000 0.99321014 0.03195431
0.00000000 0.99868518 0.01171544
0.00000000 0.99600577 0.00000000
0.00000000 0.09568992 0.91803908
0.00000000 0.12249111 0.89566272
0.00000000 0.15173319 0.87124282
0.00000000 0.18317935 0.84493619
0.00000000 0.21659276 0.81689960
0.00000000 0.25173658 0.78728992
0.00000000 0.28837398 0.75626391
0.00000000 0.32626814 0.72397834
0.00000000 0.36518222 0.69059014
0.00000000 0.40487942 0.65625602
0.00000000 0.44512287 0.62113279
0.00000000 0.48567575 0.58537734
0.00000000 0.52630126 0.54914635
0.00000000 0.56676257 0.51259673
0.00000000 0.60682279 0.47588524
0.00000000 0.64624512 0.43916872
0.00000000 0.68479282 0.40260395
0.00000000 0.72222894 0.36634773
0.00000000 0.75831670 0.33055690
0.00000000 0.79281926 0.29538825
0.00000000 0.82549977 0.26099858
0.00000000 0.85612148 0.22754472
0.00000000 0.88444746 0.19518346
0.00000000 0.91024095 0.16407160
0.00000000 0.93326509 0.13436596
0.00000000 0.95328307 0.10622334
0.00000000 0.97005808 0.07980056
0.00000000 0.98335320 0.05525442
0.00000000 0.99293172 0.03274173
0.00000000 0.99855673 0.01241929
0.00000000 0.99642986 0.00000000
0.00000000 0.98358649 0.00000000
0.00000000 0.96811181 0.00000000
0.00000000 0.15061690 0.87217563
0.00000000 0.18198617 0.84593558
0.00000000 0.21533139 0.81795990
0.00000000 0.25041574 0.78840530
0.00000000 0.28700238 0.75742859
0.00000000 0.32485452 0.72518665
0.00000000 0.36373529 0.69183618
0.00000000 0.40340784 0.65753406
0.00000000 0.44363540 0.62243712
0.00000000 0.48418111 0.58670211
0.00000000 0.52480817 0.55048585
0.00000000 0.56527966 0.51394522
0.00000000 0.60535884 0.47723690
0.00000000 0.64480889 0.44051778
0.00000000 0.68339288 0.40394464
0.00000000 0.72087413 0.36767429
0.00000000 0.75701565 0.33186355
0.00000000 0.79158074 0.29666924
0.00000000 0.82433254 0.26224813
0.00000000 0.85503411 0.22875707
0.00000000 0.88344878 0.19635282
0.00000000 0.90933967 0.16519223
0.00000000 0.93246984 0.13543208
0.00000000 0.95260262 0.10722918
0.00000000 0.96950114 0.08074035
0.00000000 0.98292851 0.05612239
0.00000000 0.99264795 0.03353211
0.00000000 0.99842256 0.01312631
0.00000000 0.99685013 0.00000000
0.00000000 0.98410654 0.00000000
0.00000000 0.96872592 0.00000000
0.00000000 0.95086432 0.00000000
0.00000000 0.93067789 0.00000000
0.00000000 0.21407238 0.81901801
0.00000000 0.24909694 0.78951871
0.00000000 0.28563252 0.75859159
0.00000000 0.32344228 0.72639340
0.00000000 0.36228940 0.69308096
0.00000000 0.40193704 0.65881109
0.00000000 0.44214839 0.62374061
0.00000000 0.48268658 0.58802629
0.00000000 0.52331483 0.55182493
0.00000000 0.56379622 0.51529342
0.00000000 0.60389405 0.47858852
0.00000000 0.64337140 0.44186702
0.00000000 0.68199152 0.40528575
0.00000000 0.71951747 0.36900148
0.00000000 0.75571251 0.33317107
0.00000000 0.79033977 0.29795128
0.00000000 0.82316244 0.26349896
0.00000000 0.85394371 0.22997089
0.00000000 0.88244671 0.19752388
0.00000000 0.90843457 0.16631475
0.00000000 0.93167061 0.13650030
0.00000000 0.95191783 0.10823733
0.00000000 0.96893948 0.08168267
0.00000000 0.98249876 0.05699310
0.00000000 0.99235880 0.03432544
0.00000000 0.99828279 0.01383651
0.00000000 0.99726665 0.00000000
0.00000000 0.98462307 0.00000000
0.00000000 0.96933663 0.00000000
0.00000000 0.95156360 0.00000000
0.00000000 0.93145996 0.00000000
0.00000000 0.90918189 0.00000000
0.00000000 0.88488555 0.00000000
0.00000000 0.28426439 0.75975287
0.00000000 0.32203147 0.72759861
0.00000000 0.36084461 0.69432443
0.00000000 0.40046701 0.66008699
0.00000000 0.44066179 0.62504315
0.00000000 0.48119214 0.58934975
0.00000000 0.52182126 0.55316359
0.00000000 0.56231230 0.51664144
0.00000000 0.60242844 0.47994012
0.00000000 0.64193285 0.44321644
0.00000000 0.68058866 0.40662724
0.00000000 0.71815908 0.37032926
0.00000000 0.75440729 0.33447936
0.00000000 0.78909642 0.29923436
0.00000000 0.82198966 0.26475102
0.00000000 0.85285020 0.23118617
0.00000000 0.88144118 0.19869661
0.00000000 0.90752584 0.16743916
0.00000000 0.93086725 0.13757062
0.00000000 0.95122862 0.10924780
0.00000000 0.96837318 0.08262751
0.00000000 0.98206401 0.05786655
0.00000000 0.99206436 0.03512173
0.00000000 0.99813730 0.01454986
0.00000000 0.99767941 0.00000000
0.00000000 0.98513597 0.00000000
0.00000000 0.96994406 0.00000000
0.00000000 0.95225966 0.00000000
0.00000000 0.93223900 0.00000000
0.00000000 0.91003823 0.00000000
0.00000000 0.88581336 0.00000000
0.00000000 0.85972065 0.00000000
0.00000000 0.83191615 0.00000000
0.00000000 0.35940093 0.69556659
0.00000000 0.39899772 0.66136181
0.00000000 0.43917567 0.62634486
0.00000000 0.47969788 0.59067261
0.00000000 0.52032757 0.55450177
0.00000000 0.56082785 0.51798922
0.00000000 0.60096198 0.48129168
0.00000000 0.64049309 0.44456607
0.00000000 0.67918432 0.40796912
0.00000000 0.71679884 0.37165767
0.00000000 0.75309992 0.33578852
0.00000000 0.78785056 0.30051845
0.00000000 0.82081413 0.26600432
0.00000000 0.85175365 0.23240291
0.00000000 0.88043231 0.19987100
0.00000000 0.90661335 0.16856545
0.00000000 0.93005991 0.13864304
0.00000000 0.95053512 0.11026058
0.00000000 0.96780217 0.08357487
0.00000000 0.98162425 0.05874272
0.00000000 0.99176455 0.03592096
0.00000000 0.99798620 0.01526637
0.00000000 0.99808830 0.00000000
0.00000000 0.98564535 0.00000000
0.00000000 0.97054809 0.00000000
0.00000000 0.95295262 0.00000000
0.00000000 0.93301517 0.00000000
0.00000000 0.91089177 0.00000000
0.00000000 0.88673866 0.00000000
0.00000000 0.86071187 0.00000000
0.00000000 0.83296758 0.00000000
0.00000000 0.80366194 0.00000000
0.00000000 0.77295107 0.00000000
0.00000000 0.43768999 0.62764567
0.00000000 0.47820374 0.59199476
0.00000000 0.51883364 0.55583948
0.00000000 0.55934292 0.51933670
0.00000000 0.59949470 0.48264322
0.00000000 0.63905215 0.44591585
0.00000000 0.67777848 0.40931138
0.00000000 0.71543688 0.37298667
0.00000000 0.75179040 0.33709845
0.00000000 0.78660238 0.30180359
0.00000000 0.81963581 0.26725885
0.00000000 0.85065401 0.23362108
0.00000000 0.87942004 0.20104706
0.00000000 0.90569717 0.16969362
0.00000000 0.92924851 0.13971753
0.00000000 0.94983721 0.11127564
0.00000000 0.96722651 0.08452474
0.00000000 0.98117954 0.05962162
0.00000000 0.99145949 0.03672311
0.00000000 0.99782950 0.01598602
0.00000000 0.99849343 0.00000000
0.00000000 0.98615110 0.00000000
0.00000000 0.97114873 0.00000000
0.00000000 0.95364243 0.00000000
0.00000000 0.93378830 0.00000000
0.00000000 0.91174263 0.00000000
0.00000000 0.88766140 0.00000000
0.00000000 0.86170077 0.00000000
0.00000000 0.83401692 0.00000000
0.00000000 0.80476594 0.00000000
0.00000000 0.77410400 0.00000000
0.00000000 0.74218720 0.00000000
0.00000000 0.70917165 0.00000000
0.00000000 0.51733959 0.55717671
0.00000000 0.55785751 0.52068394
0.00000000 0.59802663 0.48399472
0.00000000 0.63761014 0.44726580
0.00000000 0.67637128 0.41065407
0.00000000 0.71407312 0.37431625
0.00000000 0.75047886 0.33840922
0.00000000 0.78535169 0.30308974
0.00000000 0.81845480 0.26851463
0.00000000 0.84955132 0.23484071
0.00000000 0.87840444 0.20222478
0.00000000 0.90477729 0.17082365
0.00000000 0.92843312 0.14079411
0.00000000 0.94913501 0.11229300
0.00000000 0.96664619 0.08547711
0.00000000 0.98072988 0.06050323
0.00000000 0.99114913 0.03752820
0.00000000 0.99766719 0.01670881
0.00000000 0.99889475 0.00000000
0.00000000 0.98665327 0.00000000
0.00000000 0.97174597 0.00000000
0.00000000 0.95432901 0.00000000
0.00000000 0.93455851 0.00000000
0.00000000 0.91259068 0.00000000
0.00000000 0.88858157 0.00000000
0.00000000 0.86268735 0.00000000
0.00000000 0.83506411 0.00000000
0.00000000 0.80586803 0.00000000
0.00000000 0.77525520 0.00000000
0.00000000 0.74338180 0.00000000
0.00000000 0.71040392 0.00000000
0.00000000 0.67647773 0.00000000
0.00000000 0.64175940 0.00000000
0.00000000 0.59655774 0.48534614
0.00000000 0.63616705 0.44861594
0.00000000 0.67496258 0.41199708
0.00000000 0.71270758 0.37564641
0.00000000 0.74916524 0.33972076
0.00000000 0.78409868 0.30437687
0.00000000 0.81727105 0.26977161
0.00000000 0.84844559 0.23606177
0.00000000 0.87738544 0.20340413
0.00000000 0.90385371 0.17195553
0.00000000 0.92761374 0.14187276
0.00000000 0.94842851 0.11331264
0.00000000 0.96606129 0.08643197
0.00000000 0.98027521 0.06138755
0.00000000 0.99083346 0.03833620
0.00000000 0.99749923 0.01743473
0.00000000 0.99929225 0.00000000
0.00000000 0.98715180 0.00000000
0.00000000 0.97233981 0.00000000
0.00000000 0.95501244 0.00000000
0.00000000 0.93532574 0.00000000
0.00000000 0.91343600 0.00000000
0.00000000 0.88949919 0.00000000
0.00000000 0.86367154 0.00000000
0.00000000 0.83610916 0.00000000
0.00000000 0.80696815 0.00000000
0.00000000 0.77640474 0.00000000
0.00000000 0.74457490 0.00000000
0.00000000 0.71163493 0.00000000
0.00000000 0.67774087 0.00000000
0.00000000 0.64304888 0.00000000
0.00000000 0.60771507 0.00000000
0.00000000 0.57189554 0.00000000
0.00000000 0.67355251 0.41334048
0.00000000 0.71134037 0.37697718
0.00000000 0.74784952 0.34103307
0.00000000 0.78284323 0.30566502
0.00000000 0.81608462 0.27102980
0.00000000 0.84733683 0.23728424
0.00000000 0.87636310 0.20458512
0.00000000 0.90292650 0.17308927
0.00000000 0.92679036 0.14295347
0.00000000 0.94771767 0.11433455
0.00000000 0.96547168 0.08738931
0.00000000 0.97981560 0.06227456
0.00000000 0.99051255 0.03914711
0.00000000 0.99732572 0.01816377
0.00000000 0.99968594 0.00000000
0.00000000 0.98764670 0.00000000
0.00000000 0.97293025 0.00000000
0.00000000 0.95569265 0.00000000
0.00000000 0.93608999 0.00000000
0.00000000 0.91427851 0.00000000
0.00000000 0.89041424 0.00000000
0.00000000 0.86465341 0.00000000
0.00000000 0.83715206 0.00000000
0.00000000 0.80806643 0.00000000
0.00000000 0.77755255 0.00000000
0.00000000 0.74576658 0.00000000
0.00000000 0.71286464 0.00000000
0.00000000 0.67900288 0.00000000
0.00000000 0.64433748 0.00000000
0.00000000 0.60902452 0.00000000
0.00000000 0.57322013 0.00000000
0.00000000 0.53708047 0.00000000
0.00000000 0.50076163 0.00000000
0.00000000 0.74653178 0.34234619
0.00000000 0.78158545 0.30695418
0.00000000 0.81489545 0.27228922
0.00000000 0.84622508 0.23850814
0.00000000 0.87533742 0.20576774
0.00000000 0.90199566 0.17422484
0.00000000 0.92596298 0.14403622
0.00000000 0.94700253 0.11535873
0.00000000 0.96487749 0.08834913
0.00000000 0.97935104 0.06316426
0.00000000 0.99018639 0.03996093
0.00000000 0.99714667 0.01889592
0.00000000 0.99999499 0.00012606
0.00000000 0.98813802 0.00000000
0.00000000 0.97351730 0.00000000
0.00000000 0.95636964 0.00000000
0.00000000 0.93685126 0.00000000
0.00000000 0.91511828 0.00000000
0.00000000 0.89132679 0.00000000
0.00000000 0.86563295 0.00000000
0.00000000 0.83819288 0.00000000
0.00000000 0.80916274 0.00000000
0.00000000 0.77869862 0.00000000
0.00000000 0.74695665 0.00000000
0.00000000 0.71409303 0.00000000
0.00000000 0.68026382 0.00000000
0.00000000 0.64562523 0.00000000
0.00000000 0.61033332 0.00000000
0.00000000 0.57454425 0.00000000
0.00000000 0.53841412 0.00000000
0.00000000 0.50209916 0.00000000
0.00000000 0.46575537 0.00000000
0.00000000 0.42953897 0.00000000
0.00000000 0.81370366 0.27354982
0.00000000 0.84511030 0.23973344
0.00000000 0.87430841 0.20695198
0.00000000 0.90106118 0.17536224
0.00000000 0.92513168 0.14512102
0.00000000 0.94628310 0.11638515
0.00000000 0.96427870 0.08931143
0.00000000 0.97888160 0.06405665
0.00000000 0.98985499 0.04077763
0.00000000 0.99696201 0.01963118
0.00000000 0.99996579 0.00077411
0.00000000 0.98862571 0.00000000
0.00000000 0.97410089 0.00000000
0.00000000 0.95704347 0.00000000
0.00000000 0.93760955 0.00000000
0.00000000 0.91595525 0.00000000
0.00000000 0.89223671 0.00000000
0.00000000 0.86661011 0.00000000
0.00000000 0.83923149 0.00000000
0.00000000 0.81025708 0.00000000
0.00000000 0.77984297 0.00000000
0.00000000 0.74814528 0.00000000
0.00000000 0.71532011 0.00000000
0.00000000 0.68152368 0.00000000
0.00000000 0.64691210 0.00000000
0.00000000 0.61164147 0.00000000
0.00000000 0.57586789 0.00000000
0.00000000 0.53974760 0.00000000
0.00000000 0.50343663 0.00000000
0.00000000 0.46709111 0.00000000
0.00000000 0.43086728 0.00000000
0.00000000 0.39492118 0.00000000
0.00000000 0.35940897 0.00000000
0.00000000 0.87327611 0.20813783
0.00000000 0.90012300 0.17650147
0.00000000 0.92429638 0.14620787
0.00000000 0.94555944 0.11741384
0.00000000 0.96367532 0.09027618
0.00000000 0.97840726 0.06495171
0.00000000 0.98951834 0.04159723
0.00000000 0.99677175 0.02036954
0.00000000 0.99993074 0.00142547
0.00000000 0.98910975 0.00000000
0.00000000 0.97468108 0.00000000
0.00000000 0.95771408 0.00000000
0.00000000 0.93836480 0.00000000
0.00000000 0.91678941 0.00000000
0.00000000 0.89314407 0.00000000
0.00000000 0.86758488 0.00000000
0.00000000 0.84026796 0.00000000
0.00000000 0.81134951 0.00000000
0.00000000 0.78098553 0.00000000
0.00000000 0.74933231 0.00000000
0.00000000 0.71654588 0.00000000
0.00000000 0.68278241 0.00000000
0.00000000 0.64819807 0.00000000
0.00000000 0.61294889 0.00000000
0.00000000 0.57719105 0.00000000
0.00000000 0.54108077 0.00000000
0.00000000 0.50477403 0.00000000
0.00000000 0.46842706 0.00000000
0.00000000 0.43219596 0.00000000
0.00000000 0.39623687 0.00000000
0.00000000 0.36070594 0.00000000
0.00000000 0.32575926 0.00000000
0.00000000 0.29155302 0.00000000
0.00000000 0.92345721 0.14729674
0.00000000 0.94483149 0.11844476
0.00000000 0.96306735 0.09124339
0.00000000 0.97792798 0.06584944
0.00000000 0.98917645 0.04241970
0.00000000 0.99657601 0.02111100
0.00000000 0.99988979 0.00208013
0.00000000 0.98959011 0.00000000
0.00000000 0.97525781 0.00000000
0.00000000 0.95838141 0.00000000
0.00000000 0.93911701 0.00000000
0.00000000 0.91762078 0.00000000
0.00000000 0.89404881 0.00000000
0.00000000 0.86855727 0.00000000
0.00000000 0.84130228 0.00000000
0.00000000 0.81243992 0.00000000
0.00000000 0.78212643 0.00000000
0.00000000 0.75051785 0.00000000
0.00000000 0.71777034 0.00000000
0.00000000 0.68404007 0.00000000
0.00000000 0.64948314 0.00000000
0.00000000 0.61425567 0.00000000
0.00000000 0.57851380 0.00000000
0.00000000 0.54241365 0.00000000
0.00000000 0.50611138 0.00000000
0.00000000 0.46976313 0.00000000
0.00000000 0.43352500 0.00000000
0.00000000 0.39755315 0.00000000
0.00000000 0.36200368 0.00000000
0.00000000 0.32703277 0.00000000
0.00000000 0.29279652 0.00000000
0.00000000 0.25945103 0.00000000
0.00000000 0.22715251 0.00000000
0.00000000 0.96245486 0.09221305
0.00000000 0.97744381 0.06674982
0.00000000 0.98882937 0.04324504
0.00000000 0.99637473 0.02185553
0.00000000 0.99984306 0.00273808
0.00000000 0.99006689 0.00000000
0.00000000 0.97583115 0.00000000
0.00000000 0.95904559 0.00000000
0.00000000 0.93986624 0.00000000
0.00000000 0.91844934 0.00000000
0.00000000 0.89495099 0.00000000
0.00000000 0.86952728 0.00000000
0.00000000 0.84233439 0.00000000
0.00000000 0.81352842 0.00000000
0.00000000 0.78326553 0.00000000
0.00000000 0.75170183 0.00000000
0.00000000 0.71899348 0.00000000
0.00000000 0.68529660 0.00000000
0.00000000 0.65076727 0.00000000
0.00000000 0.61556172 0.00000000
0.00000000 0.57983601 0.00000000
0.00000000 0.54374629 0.00000000
0.00000000 0.50744867 0.00000000
0.00000000 0.47109938 0.00000000
0.00000000 0.43485442 0.00000000
0.00000000 0.39886999 0.00000000
0.00000000 0.36330223 0.00000000
0.00000000 0.32830727 0.00000000
0.00000000 0.29404122 0.00000000
0.00000000 0.26066020 0.00000000
0.00000000 0.22832039 0.00000000
0.00000000 0.19717789 0.00000000
0.00000000 0.16738884 0.00000000
0.00000000 0.98847711 0.04407325
0.00000000 0.99616796 0.02260314
0.00000000 0.99979043 0.00339932
0.00000000 0.99053991 0.00000000
0.00000000 0.97640097 0.00000000
0.00000000 0.95970649 0.00000000
0.00000000 0.94061244 0.00000000
0.00000000 0.91927510 0.00000000
0.00000000 0.89585054 0.00000000
0.00000000 0.87049490 0.00000000
0.00000000 0.84336436 0.00000000
0.00000000 0.81461495 0.00000000
0.00000000 0.78440291 0.00000000
0.00000000 0.75288427 0.00000000
0.00000000 0.72021526 0.00000000
0.00000000 0.68655199 0.00000000
0.00000000 0.65205055 0.00000000
0.00000000 0.61686707 0.00000000
0.00000000 0.58115774 0.00000000
0.00000000 0.54507864 0.00000000
0.00000000 0.50878596 0.00000000
0.00000000 0.47243574 0.00000000
0.00000000 0.43618420 0.00000000
0.00000000 0.40018743 0.00000000
0.00000000 0.36460155 0.00000000
0.00000000 0.32958275 0.00000000
0.00000000 0.29528710 0.00000000
0.00000000 0.26187077 0.00000000
0.00000000 0.22948989 0.00000000
0.00000000 0.19830057 0.00000000
0.00000000 0.16845897 0.00000000
0.00000000 0.14012119 0.00000000
0.00000000 0.11344339 0.00000000
0.00000000 0.99973196 0.00406385
0.00000000 0.99100935 0.00000000
0.00000000 0.97696739 0.00000000
0.00000000 0.96036410 0.00000000
0.00000000 0.94135559 0.00000000
0.00000000 0.92009801 0.00000000
0.00000000 0.89674747 0.00000000
0.00000000 0.87146014 0.00000000
0.00000000 0.84439206 0.00000000
0.00000000 0.81569952 0.00000000
0.00000000 0.78553849 0.00000000
0.00000000 0.75406516 0.00000000
0.00000000 0.72143573 0.00000000
0.00000000 0.68780625 0.00000000
0.00000000 0.65333289 0.00000000
0.00000000 0.61817175 0.00000000
0.00000000 0.58247894 0.00000000
0.00000000 0.54641074 0.00000000
0.00000000 0.51012307 0.00000000
0.00000000 0.47377226 0.00000000
0.00000000 0.43751431 0.00000000
0.00000000 0.40150538 0.00000000
0.00000000 0.36590165 0.00000000
0.00000000 0.33085921 0.00000000
0.00000000 0.29653421 0.00000000
0.00000000 0.26308274 0.00000000
0.00000000 0.23066100 0.00000000
0.00000000 0.19942509 0.00000000
0.00000000 0.16953112 0.00000000
0.00000000 0.14113526 0.00000000
0.00000000 0.11439363 0.00000000
0.00000000 0.08946235 0.00000000
0.00000000 0.06649756 0.00000000
0.00000000 0.97753030 0.00000000
0.00000000 0.96101850 0.00000000
0.00000000 0.94209570 0.00000000
0.00000000 0.92091811 0.00000000
0.00000000 0.89764178 0.00000000
0.00000000 0.87242293 0.00000000
0.00000000 0.84541762 0.00000000
0.00000000 0.81678206 0.00000000
0.00000000 0.78667229 0.00000000
0.00000000 0.75524449 0.00000000
0.00000000 0.72265482 0.00000000
0.00000000 0.68905938 0.00000000
0.00000000 0.65461427 0.00000000
0.00000000 0.61947566 0.00000000
0.00000000 0.58379966 0.00000000
0.00000000 0.54774249 0.00000000
0.00000000 0.51146019 0.00000000
0.00000000 0.47510889 0.00000000
0.00000000 0.43884474 0.00000000
0.00000000 0.40282393 0.00000000
0.00000000 0.36720249 0.00000000
0.00000000 0.33213663 0.00000000
0.00000000 0.29778248 0.00000000
0.00000000 0.26429611 0.00000000
0.00000000 0.23183373 0.00000000
0.00000000 0.20055141 0.00000000
0.00000000 0.17060532 0.00000000
0.00000000 0.14215158 0.00000000
0.00000000 0.11534631 0.00000000
0.00000000 0.09034567 0.00000000
0.00000000 0.06730577 0.00000000
0.00000000 0.04638275 0.00000000
0.00000000 0.02773274 0.00000000
0.00000000 0.94283277 0.00000000
0.00000000 0.92173535 0.00000000
0.00000000 0.89853352 0.00000000
0.00000000 0.87338334 0.00000000
0.00000000 0.84644097 0.00000000
0.00000000 0.81786263 0.00000000
0.00000000 0.78780431 0.00000000
0.00000000 0.75642222 0.00000000
0.00000000 0.72387254 0.00000000
0.00000000 0.69031131 0.00000000
0.00000000 0.65589470 0.00000000
0.00000000 0.62077886 0.00000000
0.00000000 0.58511990 0.00000000
0.00000000 0.54907393 0.00000000
0.00000000 0.51279712 0.00000000
0.00000000 0.47644562 0.00000000
0.00000000 0.44017553 0.00000000
0.00000000 0.40414298 0.00000000
0.00000000 0.36850411 0.00000000
0.00000000 0.33341503 0.00000000
0.00000000 0.29903191 0.00000000
0.00000000 0.26551089 0.00000000
0.00000000 0.23300804 0.00000000
0.00000000 0.20167954 0.00000000
0.00000000 0.17168152 0.00000000
0.00000000 0.14317012 0.00000000
0.00000000 0.11630144 0.00000000
0.00000000 0.09123164 0.00000000
0.00000000 0.06811684 0.00000000
0.00000000 0.04711318 0.00000000
0.00000000 0.02837678 0.00000000
0.00000000 0.01206378 0.00000000
0.00204503 0.00000000 0.00204503
0.00000000 0.89942259 0.00000000
0.00000000 0.87434131 0.00000000
0.00000000 0.84746212 0.00000000
0.00000000 0.81894118 0.00000000
0.00000000 0.78893453 0.00000000
0.00000000 0.75759840 0.00000000
0.00000000 0.72508889 0.00000000
0.00000000 0.69156212 0.00000000
0.00000000 0.65717423 0.00000000
0.00000000 0.62208134 0.00000000
0.00000000 0.58643955 0.00000000
0.00000000 0.55040509 0.00000000
0.00000000 0.51413405 0.00000000
0.00000000 0.47778249 0.00000000
0.00000000 0.44150662 0.00000000
0.00000000 0.40546256 0.00000000
0.00000000 0.36980644 0.00000000
0.00000000 0.33469439 0.00000000
0.00000000 0.30028254 0.00000000
0.00000000 0.26672700 0.00000000
0.00000000 0.23418394 0.00000000
0.00000000 0.20280948 0.00000000
0.00000000 0.17275976 0.00000000
0.00000000 0.14419088 0.00000000
0.00000000 0.11725900 0.00000000
0.00000000 0.09212026 0.00000000
0.00000000 0.06893077 0.00000000
0.00000000 0.04784667 0.00000000
0.00000000 0.02902410 0.00000000
0.00000000 0.01261918 0.00000000
0.00147384 0.00000000 0.00147384
0.01824158 0.00102164 0.01824158
