autovocoding.cube
# VEGAS Pro LUT
TITLE "Autovocoding"
LUT_3D_SIZE 9
0.00000000 0.00000000 1.00000000
0.00000000 0.05254795 0.95418787
0.00000000 0.15509993 0.86842918
0.00000000 0.29249889 0.75275958
0.00000000 0.44958770 0.61721474
0.00000000 0.61120939 0.47183034
0.00000000 0.76220679 0.32664204
0.00000000 0.88742286 0.19168551
0.00000000 0.97170055 0.07699648
0.00000000 0.15061690 0.87217563
0.00000000 0.28700238 0.75742859
0.00000000 0.44363540 0.62243712
0.00000000 0.60535884 0.47723690
0.00000000 0.75701565 0.33186355
0.00000000 0.88344878 0.19635282
0.00000000 0.96950114 0.08074035
0.00000000 0.99685013 0.00000000
0.00000000 0.93067789 0.00000000
0.00000000 0.43768999 0.62764567
0.00000000 0.59949470 0.48264322
0.00000000 0.75179040 0.33709845
0.00000000 0.87942004 0.20104706
0.00000000 0.96722651 0.08452474
0.00000000 0.99849343 0.00000000
0.00000000 0.93378830 0.00000000
0.00000000 0.83401692 0.00000000
0.00000000 0.70917165 0.00000000
0.00000000 0.74653178 0.34234619
0.00000000 0.87533742 0.20576774
0.00000000 0.96487749 0.08834913
0.00000000 0.99999499 0.00012606
0.00000000 0.93685126 0.00000000
0.00000000 0.83819288 0.00000000
0.00000000 0.71409303 0.00000000
0.00000000 0.57454425 0.00000000
0.00000000 0.42953897 0.00000000
0.00000000 0.96245486 0.09221305
0.00000000 0.99984306 0.00273808
0.00000000 0.93986624 0.00000000
0.00000000 0.84233439 0.00000000
0.00000000 0.71899348 0.00000000
0.00000000 0.57983601 0.00000000
0.00000000 0.43485442 0.00000000
0.00000000 0.29404122 0.00000000
0.00000000 0.16738884 0.00000000
0.00000000 0.94283277 0.00000000
0.00000000 0.84644097 0.00000000
0.00000000 0.72387254 0.00000000
0.00000000 0.58511990 0.00000000
0.00000000 0.44017553 0.00000000
0.00000000 0.29903191 0.00000000
0.00000000 0.17168152 0.00000000
0.00000000 0.06811684 0.00000000
0.00204503 0.00000000 0.00204503
0.00000000 0.72872967 0.00000000
0.00000000 0.59039539 0.00000000
0.00000000 0.44550177 0.00000000
0.00000000 0.30404130 0.00000000
0.00000000 0.17600641 0.00000000
0.00000000 0.07138962 0.00000000
0.00000000 0.00018338 0.00000000
0.08001120 0.02735965 0.08001120
0.19227368 0.11157350 0.19227368
0.00000000 0.45083266 0.00000000
0.00000000 0.30906883 0.00000000
0.00000000 0.18036300 0.00000000
0.00000000 0.07470762 0.00000000
0.00000000 0.00209518 0.00000000
0.07642831 0.02525193 0.07642831
0.18769677 0.10764609 0.18769677
0.32097021 0.23208867 0.32097021
0.46583757 0.38318565 0.46583757
0.00000000 0.18475077 0.00000000
0.00000000 0.07807034 0.00000000
0.00000000 0.00406523 0.00000000
0.07288928 0.02322195 0.07288928
0.18314965 0.10377560 0.18314965
0.31579798 0.22694400 0.31579798
0.46042329 0.37733313 0.46042329
0.60661453 0.53954899 0.60661453
0.74396062 0.69819754 0.74396062
0.00000000 0.01317229 0.98788369
0.00000000 0.08657312 0.92565733
0.00000000 0.20419905 0.82731080
0.00000000 0.35089296 0.70287961
0.00000000 0.51149786 0.56239945
0.00000000 0.67085660 0.41590610
0.00000000 0.81381214 0.27343518
0.00000000 0.92520738 0.14502233
0.00000000 0.98988533 0.04070327
0.00000000 0.19926383 0.83145249
0.00000000 0.34515691 0.70780313
0.00000000 0.50551856 0.56773561
0.00000000 0.66519171 0.42128569
0.00000000 0.80901927 0.27848893
0.00000000 0.92184418 0.14938110
0.00000000 0.98850936 0.04399784
0.00000000 0.97634935 0.00000000
0.00000000 0.89576888 0.00000000
0.00000000 0.49953836 0.57306314
0.00000000 0.65950537 0.42667019
0.00000000 0.80418444 0.28356123
0.00000000 0.91841847 0.15377200
0.00000000 0.98705035 0.04733811
0.00000000 0.97859538 0.00000000
0.00000000 0.89934182 0.00000000
0.00000000 0.78883189 0.00000000
0.00000000 0.65705794 0.00000000
0.00000000 0.79930842 0.28865159
0.00000000 0.91493106 0.15819448
0.00000000 0.98550916 0.05072357
0.00000000 0.98078555 0.00000000
0.00000000 0.90287250 0.00000000
0.00000000 0.79333538 0.00000000
0.00000000 0.66216671 0.00000000
0.00000000 0.51935887 0.00000000
0.00000000 0.37490442 0.00000000
0.00000000 0.98388648 0.05415372
0.00000000 0.98291939 0.00000000
0.00000000 0.90636039 0.00000000
0.00000000 0.79780966 0.00000000
0.00000000 0.66725969 0.00000000
0.00000000 0.52470303 0.00000000
0.00000000 0.38013211 0.00000000
0.00000000 0.24353938 0.00000000
0.00000000 0.12491734 0.00000000
0.00000000 0.90980494 0.00000000
0.00000000 0.80225414 0.00000000
0.00000000 0.67233646 0.00000000
0.00000000 0.53004450 0.00000000
0.00000000 0.38537061 0.00000000
0.00000000 0.24830732 0.00000000
0.00000000 0.12884709 0.00000000
0.00000000 0.03698241 0.00000000
0.02875808 0.00354472 0.02875808
0.00000000 0.67739648 0.00000000
0.00000000 0.53538269 0.00000000
0.00000000 0.39061940 0.00000000
0.00000000 0.25309908 0.00000000
0.00000000 0.13281420 0.00000000
0.00000000 0.03975725 0.00000000
0.02592994 0.00275662 0.02592994
0.11960067 0.05359532 0.11960067
0.24133496 0.15544084 0.24133496
0.00000000 0.39587799 0.00000000
0.00000000 0.25791416 0.00000000
0.00000000 0.13681816 0.00000000
0.00000000 0.04258247 0.00000000
0.02315387 0.00205840 0.02315387
0.11559361 0.05072701 0.11559361
0.23647992 0.15096876 0.23647992
0.37540179 0.28738964 0.37540179
0.52194816 0.44459563 0.52194816
0.00000000 0.14085847 0.00000000
0.00000000 0.04545757 0.00000000
0.02043040 0.00145081 0.02043040
0.11162505 0.04792849 0.11162505
0.23164931 0.14654566 0.23164931
0.37009212 0.28190827 0.37009212
0.51654243 0.43862236 0.51654243
0.66058928 0.60129386 0.66058928
0.79182154 0.75452876 0.79182154
0.00000000 0.03497681 0.96905774
0.00000000 0.12702718 0.89187610
0.00000000 0.25752369 0.78240049
0.00000000 0.41130927 0.65066659
0.00000000 0.57322681 0.50671005
0.00000000 0.72811931 0.36056662
0.00000000 0.86082965 0.22227189
0.00000000 0.95620072 0.10186159
0.00000000 0.99907553 0.00937137
0.00000000 0.25221738 0.78688383
0.00000000 0.40541470 0.65579098
0.00000000 0.56730163 0.51210636
0.00000000 0.72272110 0.36586553
0.00000000 0.85651606 0.22710423
0.00000000 0.95352942 0.10585816
0.00000000 0.99860412 0.01216298
0.00000000 0.94990569 0.00000000
0.00000000 0.85636961 0.00000000
0.00000000 0.56136775 0.51749915
0.00000000 0.71729368 0.37117454
0.00000000 0.85215276 0.23196028
0.00000000 0.95078778 0.10989203
0.00000000 0.99804181 0.01500545
0.00000000 0.95270103 0.00000000
0.00000000 0.86035168 0.00000000
0.00000000 0.74055576 0.00000000
0.00000000 0.60330570 0.00000000
0.00000000 0.84774035 0.23683953
0.00000000 0.94797665 0.11396268
0.00000000 0.99738950 0.01789830
0.00000000 0.95544565 0.00000000
0.00000000 0.86429662 0.00000000
0.00000000 0.74533343 0.00000000
0.00000000 0.60854840 0.00000000
0.00000000 0.46393415 0.00000000
0.00000000 0.32148308 0.00000000
0.00000000 0.99664783 0.02084102
0.00000000 0.95813912 0.00000000
0.00000000 0.86820394 0.00000000
0.00000000 0.75008690 0.00000000
0.00000000 0.61378056 0.00000000
0.00000000 0.46927726 0.00000000
0.00000000 0.32656956 0.00000000
0.00000000 0.19564991 0.00000000
0.00000000 0.08651077 0.00000000
0.00000000 0.87207311 0.00000000
0.00000000 0.75481582 0.00000000
0.00000000 0.61900157 0.00000000
0.00000000 0.47462282 0.00000000
0.00000000 0.33167201 0.00000000
0.00000000 0.20014162 0.00000000
0.00000000 0.09002415 0.00000000
0.00000000 0.01131205 0.00000000
0.06100840 0.01681821 0.06100840
0.00000000 0.62421101 0.00000000
0.00000000 0.47997031 0.00000000
0.00000000 0.33678991 0.00000000
0.00000000 0.20466234 0.00000000
0.00000000 0.09358004 0.00000000
0.00000000 0.01353552 0.00000000
0.05767112 0.01514386 0.05767112
0.16326967 0.08724573 0.16326967
0.29296237 0.20448510 0.29296237
0.00000000 0.34192276 0.00000000
0.00000000 0.20921153 0.00000000
0.00000000 0.09717795 0.00000000
0.00000000 0.01581452 0.00000000
0.05438053 0.01355145 0.05438053
0.15889412 0.08369914 0.15889412
0.28788486 0.19955070 0.28788486
0.43094173 0.34571210 0.43094173
0.57765371 0.50678927 0.57765371
0.00000000 0.10081736 0.00000000
0.00000000 0.01814855 0.00000000
0.05113717 0.01204172 0.05113717
0.15455171 0.08021443 0.15455171
0.28282642 0.19465731 0.28282642
0.42555025 0.33997637 0.42555025
0.57231218 0.50077760 0.57231218
0.71270120 0.66166693 0.71270120
0.83630627 0.80725038 0.83630627
0.00000000 0.06457350 0.94407845
0.00000000 0.17307007 0.85340035
0.00000000 0.31423381 0.73425460
0.00000000 0.47290769 0.59667683
0.00000000 0.63393456 0.45070276
0.00000000 0.78215748 0.30636808
0.00000000 0.90241921 0.17370844
0.00000000 0.97956282 0.06275953
0.00000000 0.98791516 0.00000000
0.00000000 0.30863744 0.73902589
0.00000000 0.46693569 0.60194844
0.00000000 0.62814456 0.45610544
0.00000000 0.77710706 0.31153265
0.00000000 0.89866602 0.17826568
0.00000000 0.97766447 0.06634022
0.00000000 0.98985064 0.00000000
0.00000000 0.91807306 0.00000000
0.00000000 0.81303394 0.00000000
0.00000000 0.62233800 0.46150985
0.00000000 0.77201957 0.31671250
0.00000000 0.89485526 0.18285179
0.00000000 0.97568804 0.06996340
0.00000000 0.99172753 0.00000000
0.00000000 0.92136425 0.00000000
0.00000000 0.81737167 0.00000000
0.00000000 0.68974239 0.00000000
0.00000000 0.54846877 0.00000000
0.00000000 0.89098758 0.18746629
0.00000000 0.97363418 0.07362854
0.00000000 0.99354541 0.00000000
0.00000000 0.92460990 0.00000000
0.00000000 0.82167751 0.00000000
0.00000000 0.69474071 0.00000000
0.00000000 0.55379200 0.00000000
0.00000000 0.40882388 0.00000000
0.00000000 0.26982877 0.00000000
0.00000000 0.99530375 0.00000000
0.00000000 0.92780954 0.00000000
0.00000000 0.82595080 0.00000000
0.00000000 0.69972008 0.00000000
0.00000000 0.55910981 0.00000000
0.00000000 0.41411251 0.00000000
0.00000000 0.27472061 0.00000000
0.00000000 0.15092660 0.00000000
0.00000000 0.05272296 0.00000000
0.00000000 0.83019114 0.00000000
0.00000000 0.70467997 0.00000000
0.00000000 0.56442171 0.00000000
0.00000000 0.41940874 0.00000000
0.00000000 0.27963358 0.00000000
0.00000000 0.15508868 0.00000000
0.00000000 0.05576653 0.00000000
0.01143393 0.00005996 0.01143393
0.09821898 0.03880869 0.09821898
0.00000000 0.56972712 0.00000000
0.00000000 0.42471203 0.00000000
0.00000000 0.28456715 0.00000000
0.00000000 0.15928489 0.00000000
0.00000000 0.05885777 0.00000000
0.00895103 0.00000000 0.00895103
0.09442823 0.03633042 0.09442823
0.21044117 0.12745766 0.21044117
0.34657884 0.25785312 0.34657884
0.00000000 0.28952083 0.00000000
0.00000000 0.16351475 0.00000000
0.00000000 0.06199618 0.00000000
0.00652355 0.00000000 0.00652355
0.09067880 0.03392614 0.09067880
0.20575282 0.12331514 0.20575282
0.34133455 0.25253871 0.34133455
0.48701301 0.40620279 0.48701301
0.63237709 0.56891346 0.63237709
0.00000000 0.06518125 0.00000000
0.00415200 0.00000000 0.00415200
0.08697122 0.03159660 0.08697122
0.20109223 0.11922654 0.20109223
0.33610398 0.24725737 0.33610398
0.48159543 0.40029508 0.48159543
0.62715554 0.56294560 0.62715554
0.76237333 0.71981502 0.76237333
0.87683767 0.85550928 0.87683767
0.00000000 0.10112227 0.91350204
0.00000000 0.22386169 0.81078631
0.00000000 0.37348935 0.68342924
0.00000000 0.53484815 0.54146647
0.00000000 0.69278103 0.39493376
0.00000000 0.83213097 0.25386670
0.00000000 0.93774086 0.12830101
0.00000000 0.99445361 0.02827235
0.00000000 0.96453029 0.00000000
0.00000000 0.36768398 0.68843484
0.00000000 0.52887976 0.54683161
0.00000000 0.68720728 0.40028921
0.00000000 0.82750940 0.25884327
0.00000000 0.93462908 0.13252947
0.00000000 0.99340928 0.03138351
0.00000000 0.96704316 0.00000000
0.00000000 0.88140529 0.00000000
0.00000000 0.76631564 0.00000000
0.00000000 0.68160903 0.40565154
0.00000000 0.82284290 0.26384029
0.00000000 0.93145192 0.13679200
0.00000000 0.99227899 0.03454232
0.00000000 0.96950263 0.00000000
0.00000000 0.88513887 0.00000000
0.00000000 0.77095568 0.00000000
0.00000000 0.63694555 0.00000000
0.00000000 0.49310100 0.00000000
0.00000000 0.92821002 0.14108808
0.00000000 0.99106354 0.03774827
0.00000000 0.97190827 0.00000000
0.00000000 0.88883209 0.00000000
0.00000000 0.77556890 0.00000000
0.00000000 0.64211112 0.00000000
0.00000000 0.49845132 0.00000000
0.00000000 0.35458189 0.00000000
0.00000000 0.22049534 0.00000000
0.00000000 0.97425950 0.00000000
0.00000000 0.89248443 0.00000000
0.00000000 0.78015476 0.00000000
0.00000000 0.64726287 0.00000000
0.00000000 0.50380135 0.00000000
0.00000000 0.35976261 0.00000000
0.00000000 0.22513910 0.00000000
0.00000000 0.10992332 0.00000000
0.00000000 0.02410774 0.00000000
0.00000000 0.78471279 0.00000000
0.00000000 0.65240037 0.00000000
0.00000000 0.50915062 0.00000000
0.00000000 0.36495605 0.00000000
0.00000000 0.22980912 0.00000000
0.00000000 0.11370230 0.00000000
0.00000000 0.02662806 0.00000000
0.04030338 0.00747328 0.04030338
0.13981280 0.06866296 0.13981280
0.00000000 0.51449859 0.00000000
0.00000000 0.37016174 0.00000000
0.00000000 0.23450492 0.00000000
0.00000000 0.11752058 0.00000000
0.00000000 0.02920121 0.00000000
0.03727666 0.00634123 0.03727666
0.13562424 0.06546310 0.13562424
0.26053816 0.17337792 0.26053816
0.40160736 0.31469166 0.40160736
0.00000000 0.23922598 0.00000000
0.00000000 0.12137765 0.00000000
0.00000000 0.03182667 0.00000000
0.03429998 0.00529605 0.03429998
0.13147166 0.06232927 0.13147166
0.25559267 0.16872178 0.25559267
0.39625201 0.30907956 0.39625201
0.54303861 0.46800861 0.54303861
0.68554139 0.63011485 0.68554139
0.00000000 0.03450396 0.00000000
0.03137386 0.00433851 0.03137386
0.12735555 0.05926226 0.12735555
0.25066957 0.16411163 0.25066957
0.39090493 0.30349261 0.39090493
0.53765059 0.46201116 0.53765059
0.68049544 0.62427330 0.68049544
0.80902857 0.77488494 0.80902857
0.91283888 0.89845216 0.91283888
0.00000000 0.14378308 0.87788475
0.00000000 0.27856201 0.76459026
0.00000000 0.43445021 0.63048071
0.00000000 0.59629059 0.48559186
0.00000000 0.74892616 0.33995929
0.00000000 0.87719977 0.20361874
0.00000000 0.96595442 0.08660584
0.00000000 0.99936414 0.00000000
0.00000000 0.93546492 0.00000000
0.00000000 0.42851692 0.63566697
0.00000000 0.59040689 0.49099684
0.00000000 0.74364966 0.34521383
0.00000000 0.87308806 0.20835361
0.00000000 0.96356511 0.09045186
0.00000000 0.99992371 0.00154425
0.00000000 0.93850178 0.00000000
0.00000000 0.84045619 0.00000000
0.00000000 0.71676862 0.00000000
0.00000000 0.73834091 0.35048044
0.00000000 0.86892366 0.21311414
0.00000000 0.96110260 0.09433711
0.00000000 0.99972075 0.00418502
0.00000000 0.94149041 0.00000000
0.00000000 0.84457874 0.00000000
0.00000000 0.72165745 0.00000000
0.00000000 0.58271915 0.00000000
0.00000000 0.43775618 0.00000000
0.00000000 0.95856756 0.09826112
0.00000000 0.99942476 0.00687812
0.00000000 0.94443029 0.00000000
0.00000000 0.84866607 0.00000000
0.00000000 0.72652465 0.00000000
0.00000000 0.58799851 0.00000000
0.00000000 0.44308016 0.00000000
0.00000000 0.30176201 0.00000000
0.00000000 0.17403659 0.00000000
0.00000000 0.94732094 0.00000000
0.00000000 0.85271770 0.00000000
0.00000000 0.73136961 0.00000000
0.00000000 0.59326923 0.00000000
0.00000000 0.44840899 0.00000000
0.00000000 0.30678135 0.00000000
0.00000000 0.17837884 0.00000000
0.00000000 0.07319386 0.00000000
0.00000000 0.00121893 0.00000000
0.00000000 0.73619193 0.00000000
0.00000000 0.59853083 0.00000000
0.00000000 0.45374221 0.00000000
0.00000000 0.31181860 0.00000000
0.00000000 0.18275249 0.00000000
0.00000000 0.07653632 0.00000000
0.00000000 0.00316257 0.00000000
0.07449246 0.02413498 0.07449246
0.18521281 0.10552781 0.18521281
0.00000000 0.45907930 0.00000000
0.00000000 0.31687325 0.00000000
0.00000000 0.18715708 0.00000000
0.00000000 0.07992322 0.00000000
0.00000000 0.00516418 0.00000000
0.07097759 0.02214773 0.07097759
0.18068214 0.10168868 0.18068214
0.31298360 0.22415330 0.31298360
0.45747092 0.37414753 0.45747092
0.00000000 0.19159208 0.00000000
0.00000000 0.08335409 0.00000000
0.00000000 0.00722326 0.00000000
0.06750739 0.02023941 0.06750739
0.17618208 0.09790765 0.17618208
0.30783665 0.21906587 0.30783665
0.45206013 0.36832008 0.45206013
0.59844142 0.53027624 0.59844142
0.73656958 0.68954039 0.73656958
0.00000000 0.00933933 0.00000000
0.06408239 0.01841079 0.06408239
0.17171310 0.09418547 0.17171310
0.30270675 0.21401648 0.30270675
0.44665226 0.36250982 0.44665226
0.59313864 0.52427143 0.59313864
0.73175490 0.68390733 0.73175490
0.85208988 0.82602352 0.85208988
0.94373268 0.93522590 0.94373268
0.00000000 0.19171582 0.83778274
0.00000000 0.33633089 0.71536833
0.00000000 0.49627632 0.57596523
0.00000000 0.65639496 0.42960909
0.00000000 0.80152982 0.28633559
0.00000000 0.91652381 0.15618038
0.00000000 0.98621988 0.04917915
0.00000000 0.97979695 0.00000000
0.00000000 0.90127295 0.00000000
0.00000000 0.49029616 0.58127844
0.00000000 0.65067703 0.43500027
0.00000000 0.79663163 0.29143554
0.00000000 0.91300303 0.16061990
0.00000000 0.98463410 0.05258905
0.00000000 0.98195648 0.00000000
0.00000000 0.90478033 0.00000000
0.00000000 0.79577959 0.00000000
0.00000000 0.66494668 0.00000000
0.00000000 0.79169345 0.29655275
0.00000000 0.90942174 0.16509028
0.00000000 0.98296732 0.05604337
0.00000000 0.98405945 0.00000000
0.00000000 0.90824461 0.00000000
0.00000000 0.80023766 0.00000000
0.00000000 0.67003089 0.00000000
0.00000000 0.52761692 0.00000000
0.00000000 0.38298815 0.00000000
0.00000000 0.98122019 0.05954161
0.00000000 0.98610526 0.00000000
0.00000000 0.91166538 0.00000000
0.00000000 0.80466563 0.00000000
0.00000000 0.67509860 0.00000000
0.00000000 0.53295666 0.00000000
0.00000000 0.38823232 0.00000000
0.00000000 0.25091809 0.00000000
0.00000000 0.13100637 0.00000000
0.00000000 0.91504204 0.00000000
0.00000000 0.80906314 0.00000000
0.00000000 0.68014926 0.00000000
0.00000000 0.53829288 0.00000000
0.00000000 0.39348653 0.00000000
0.00000000 0.25572261 0.00000000
0.00000000 0.13499364 0.00000000
0.00000000 0.04129207 0.00000000
0.02440923 0.00236458 0.02440923
0.00000000 0.68518239 0.00000000
0.00000000 0.54362518 0.00000000
0.00000000 0.39875028 0.00000000
0.00000000 0.26055023 0.00000000
0.00000000 0.13901749 0.00000000
0.00000000 0.04414455 0.00000000
0.02166178 0.00171570 0.02166178
0.11342414 0.04919184 0.11342414
0.23384199 0.14855005 0.23384199
0.00000000 0.40402302 0.00000000
0.00000000 0.26540038 0.00000000
0.00000000 0.14307743 0.00000000
0.00000000 0.04704665 0.00000000
0.01896721 0.00115787 0.01896721
0.10947680 0.04643173 0.10947680
0.22902489 0.14415397 0.22902489
0.36720046 0.27893057 0.36720046
0.51359248 0.43536755 0.51359248
0.00000000 0.14717294 0.00000000
0.00000000 0.04999785 0.00000000
0.01632604 0.00069186 0.01632604
0.10556877 0.04374259 0.10556877
0.22423302 0.13980804 0.22423302
0.36190775 0.27349421 0.36190775
0.50818193 0.42940706 0.50818193
0.65264457 0.59215260 0.65264457
0.78488457 0.74633676 0.78488457
0.01373877 0.00031844 0.01373877
0.10170055 0.04112522 0.10170055
0.21946687 0.13551305 0.21946687
0.35662669 0.26808792 0.35662669
0.50276899 0.42345580 0.50276899
0.64748269 0.58622271 0.64748269
0.78035682 0.74099457 0.78035682
0.89098030 0.87237746 0.89098030
0.96894217 0.96497726 0.96894217
0.00000000 0.24408045 0.79375225
0.00000000 0.39632833 0.66367686
0.00000000 0.55812764 0.52043903
0.00000000 0.71432120 0.37407446
0.00000000 0.84975201 0.23461884
0.00000000 0.94926304 0.11210786
0.00000000 0.99769711 0.01657716
0.00000000 0.95420438 0.00000000
0.00000000 0.86250812 0.00000000
0.00000000 0.55218166 0.52582550
0.00000000 0.70885003 0.37939814
0.00000000 0.84531325 0.23951055
0.00000000 0.94641423 0.11619837
0.00000000 0.99699599 0.01949727
0.00000000 0.95692116 0.00000000
0.00000000 0.86643261 0.00000000
0.00000000 0.74792928 0.00000000
0.00000000 0.61140364 0.00000000
0.00000000 0.84082657 0.24442469
0.00000000 0.94349712 0.12032489
0.00000000 0.99620593 0.02246698
0.00000000 0.95958656 0.00000000
0.00000000 0.87031913 0.00000000
0.00000000 0.75266939 0.00000000
0.00000000 0.61662978 0.00000000
0.00000000 0.47219276 0.00000000
0.00000000 0.32935077 0.00000000
0.00000000 0.99532777 0.02548579
0.00000000 0.96219993 0.00000000
0.00000000 0.87416732 0.00000000
0.00000000 0.75738466 0.00000000
0.00000000 0.62184459 0.00000000
0.00000000 0.47753942 0.00000000
0.00000000 0.33446172 0.00000000
0.00000000 0.20260391 0.00000000
0.00000000 0.09195849 0.00000000
0.00000000 0.87797654 0.00000000
0.00000000 0.76207459 0.00000000
0.00000000 0.62704748 0.00000000
0.00000000 0.48288774 0.00000000
0.00000000 0.33958784 0.00000000
0.00000000 0.20714021 0.00000000
0.00000000 0.09553736 0.00000000
0.00000000 0.01477176 0.00000000
0.05587043 0.01426507 0.05587043
0.00000000 0.63223803 0.00000000
0.00000000 0.48823723 0.00000000
0.00000000 0.34472865 0.00000000
0.00000000 0.21170473 0.00000000
0.00000000 0.09915797 0.00000000
0.00000000 0.01708084 0.00000000
0.05260554 0.01271766 0.05260554
0.15652139 0.08179067 0.15652139
0.28512332 0.19687645 0.28512332
0.00000000 0.34988365 0.00000000
0.00000000 0.21629696 0.00000000
0.00000000 0.10281981 0.00000000
0.00000000 0.01944468 0.00000000
0.04938815 0.01125336 0.04938815
0.15219727 0.07834001 0.15219727
0.28007546 0.19200575 0.28007546
0.42261174 0.33685657 0.42261174
0.56939501 0.49749848 0.56939501
0.00000000 0.10652240 0.00000000
0.00000000 0.02186279 0.00000000
0.04621878 0.00987294 0.04621878
0.14790708 0.07495239 0.14790708
0.27504745 0.18717729 0.27504745
0.41722894 0.33115357 0.41722894
0.56404042 0.49148726 0.56404042
0.70507091 0.65278435 0.70507091
0.82990938 0.79965079 0.82990938
0.04309795 0.00857717 0.04309795
0.14365132 0.07162859 0.14365132
0.27003983 0.18239178 0.27003983
0.41185239 0.32547271 0.41185239
0.55867797 0.48547739 0.55867797
0.70010561 0.64701176 0.70010561
0.82572424 0.79468185 0.82572424
0.92512280 0.91309363 0.92512280
0.98789030 0.98685300 0.98789030
0.00000000 0.30003688 0.74634951
0.00000000 0.45771423 0.61007196
0.00000000 0.61916405 0.46445826
0.00000000 0.76922917 0.31954417
0.00000000 0.89275265 0.18536530
0.00000000 0.97457731 0.07195739
0.00000000 0.99272645 0.00000000
0.00000000 0.92314029 0.00000000
0.00000000 0.81972432 0.00000000
0.00000000 0.61333328 0.46986434
0.00000000 0.76408583 0.32474670
0.00000000 0.88885427 0.18999510
0.00000000 0.97248155 0.07564522
0.00000000 0.99451190 0.00000000
0.00000000 0.92636085 0.00000000
0.00000000 0.82401246 0.00000000
0.00000000 0.69745910 0.00000000
0.00000000 0.55669332 0.00000000
0.00000000 0.88490027 0.19465248
0.00000000 0.97030967 0.07937423
0.00000000 0.99623758 0.00000000
0.00000000 0.92953521 0.00000000
0.00000000 0.82826781 0.00000000
0.00000000 0.70242792 0.00000000
0.00000000 0.56200796 0.00000000
0.00000000 0.41700044 0.00000000
0.00000000 0.27739784 0.00000000
0.00000000 0.99790293 0.00000000
0.00000000 0.93266273 0.00000000
0.00000000 0.83248991 0.00000000
0.00000000 0.70737702 0.00000000
0.00000000 0.56731641 0.00000000
0.00000000 0.42230061 0.00000000
0.00000000 0.28232208 0.00000000
0.00000000 0.15737332 0.00000000
0.00000000 0.05744679 0.00000000
0.00000000 0.83667827 0.00000000
0.00000000 0.71230584 0.00000000
0.00000000 0.57261813 0.00000000
0.00000000 0.42760757 0.00000000
0.00000000 0.28726670 0.00000000
0.00000000 0.16158795 0.00000000
0.00000000 0.06056381 0.00000000
0.00762004 0.00000000 0.00762004
0.09237793 0.03500978 0.09237793
0.00000000 0.57791263 0.00000000
0.00000000 0.43292084 0.00000000
0.00000000 0.29223114 0.00000000
0.00000000 0.16583593 0.00000000
0.00000000 0.06372773 0.00000000
0.00522301 0.00000000 0.00522301
0.08865127 0.03264617 0.08865127
0.20320721 0.12107826 0.20320721
0.33847979 0.24965382 0.33847979
0.00000000 0.29721493 0.00000000
0.00000000 0.17011680 0.00000000
0.00000000 0.06693805 0.00000000
0.00288219 0.00000000 0.00288219
0.08496673 0.03035773 0.08496673
0.19856197 0.11701939 0.19856197
0.33325687 0.24439085 0.33325687
0.47864038 0.39707810 0.47864038
0.62430149 0.55968714 0.62430149
0.00000000 0.07019426 0.00000000
0.00059811 0.00000000 0.00059811
0.08132485 0.02814522 0.08132485
0.19394529 0.11301561 0.19394529
0.32804841 0.23916213 0.32804841
0.47322315 0.39119080 0.47322315
0.61905849 0.55370754 0.61905849
0.75514346 0.71131837 0.75514346
0.87106693 0.84862930 0.87106693
0.07772613 0.02600942 0.07772613
0.18935768 0.10906770 0.18935768
0.32285494 0.23396845 0.32285494
0.46780682 0.38531765 0.46780682
0.61380231 0.54772133 0.61380231
0.75043046 0.70578539 0.75043046
0.86728013 0.84411591 0.86728013
0.95394033 0.94731873 0.95394033
1.00000000 1.00000000 1.00000000
