autovocoding.cube
# VEGAS Pro LUT
TITLE "Autovocoding"
LUT_3D_SIZE 5
0.00000000 0.00000000 1.00000000
0.00000000 0.15509993 0.86842918
0.00000000 0.44958770 0.61721474
0.00000000 0.76220679 0.32664204
0.00000000 0.97170055 0.07699648
0.00000000 0.43768999 0.62764567
0.00000000 0.75179040 0.33709845
0.00000000 0.96722651 0.08452474
0.00000000 0.93378830 0.00000000
0.00000000 0.70917165 0.00000000
0.00000000 0.96245486 0.09221305
0.00000000 0.93986624 0.00000000
0.00000000 0.71899348 0.00000000
0.00000000 0.43485442 0.00000000
0.00000000 0.16738884 0.00000000
0.00000000 0.72872967 0.00000000
0.00000000 0.44550177 0.00000000
0.00000000 0.17600641 0.00000000
0.00000000 0.00018338 0.00000000
0.19227368 0.11157350 0.19227368
0.00000000 0.18475077 0.00000000
0.00000000 0.00406523 0.00000000
0.18314965 0.10377560 0.18314965
0.46042329 0.37733313 0.46042329
0.74396062 0.69819754 0.74396062
0.00000000 0.03497681 0.96905774
0.00000000 0.25752369 0.78240049
0.00000000 0.57322681 0.50671005
0.00000000 0.86082965 0.22227189
0.00000000 0.99907553 0.00937137
0.00000000 0.56136775 0.51749915
0.00000000 0.85215276 0.23196028
0.00000000 0.99804181 0.01500545
0.00000000 0.86035168 0.00000000
0.00000000 0.60330570 0.00000000
0.00000000 0.99664783 0.02084102
0.00000000 0.86820394 0.00000000
0.00000000 0.61378056 0.00000000
0.00000000 0.32656956 0.00000000
0.00000000 0.08651077 0.00000000
0.00000000 0.62421101 0.00000000
0.00000000 0.33678991 0.00000000
0.00000000 0.09358004 0.00000000
0.05767112 0.01514386 0.05767112
0.29296237 0.20448510 0.29296237
0.00000000 0.10081736 0.00000000
0.05113717 0.01204172 0.05113717
0.28282642 0.19465731 0.28282642
0.57231218 0.50077760 0.57231218
0.83630627 0.80725038 0.83630627
0.00000000 0.10112227 0.91350204
0.00000000 0.37348935 0.68342924
0.00000000 0.69278103 0.39493376
0.00000000 0.93774086 0.12830101
0.00000000 0.96453029 0.00000000
0.00000000 0.68160903 0.40565154
0.00000000 0.93145192 0.13679200
0.00000000 0.96950263 0.00000000
0.00000000 0.77095568 0.00000000
0.00000000 0.49310100 0.00000000
0.00000000 0.97425950 0.00000000
0.00000000 0.78015476 0.00000000
0.00000000 0.50380135 0.00000000
0.00000000 0.22513910 0.00000000
0.00000000 0.02410774 0.00000000
0.00000000 0.51449859 0.00000000
0.00000000 0.23450492 0.00000000
0.00000000 0.02920121 0.00000000
0.13562424 0.06546310 0.13562424
0.40160736 0.31469166 0.40160736
0.00000000 0.03450396 0.00000000
0.12735555 0.05926226 0.12735555
0.39090493 0.30349261 0.39090493
0.68049544 0.62427330 0.68049544
0.91283888 0.89845216 0.91283888
0.00000000 0.19171582 0.83778274
0.00000000 0.49627632 0.57596523
0.00000000 0.80152982 0.28633559
0.00000000 0.98621988 0.04917915
0.00000000 0.90127295 0.00000000
0.00000000 0.79169345 0.29655275
0.00000000 0.98296732 0.05604337
0.00000000 0.90824461 0.00000000
0.00000000 0.67003089 0.00000000
0.00000000 0.38298815 0.00000000
0.00000000 0.91504204 0.00000000
0.00000000 0.68014926 0.00000000
0.00000000 0.39348653 0.00000000
0.00000000 0.13499364 0.00000000
0.02440923 0.00236458 0.02440923
0.00000000 0.40402302 0.00000000
0.00000000 0.14307743 0.00000000
0.01896721 0.00115787 0.01896721
0.22902489 0.14415397 0.22902489
0.51359248 0.43536755 0.51359248
0.01373877 0.00031844 0.01373877
0.21946687 0.13551305 0.21946687
0.50276899 0.42345580 0.50276899
0.78035682 0.74099457 0.78035682
0.96894217 0.96497726 0.96894217
0.00000000 0.30003688 0.74634951
0.00000000 0.61916405 0.46445826
0.00000000 0.89275265 0.18536530
0.00000000 0.99272645 0.00000000
0.00000000 0.81972432 0.00000000
0.00000000 0.88490027 0.19465248
0.00000000 0.99623758 0.00000000
0.00000000 0.82826781 0.00000000
0.00000000 0.56200796 0.00000000
0.00000000 0.27739784 0.00000000
0.00000000 0.83667827 0.00000000
0.00000000 0.57261813 0.00000000
0.00000000 0.28726670 0.00000000
0.00000000 0.06056381 0.00000000
0.09237793 0.03500978 0.09237793
0.00000000 0.29721493 0.00000000
0.00000000 0.06693805 0.00000000
0.08496673 0.03035773 0.08496673
0.33325687 0.24439085 0.33325687
0.62430149 0.55968714 0.62430149
0.07772613 0.02600942 0.07772613
0.32285494 0.23396845 0.32285494
0.61380231 0.54772133 0.61380231
0.86728013 0.84411591 0.86728013
1.00000000 1.00000000 1.00000000
